X: 29963
T: Oay McKesson's Pastime
R: reel
M: 4/4
K: Dmixolydian
A|:"D" dADG FDCD|ADBD AcBA|"C" EGAB cBAd|ddec BcAF|
"D" d^cAG FDCD|ADBD AcBA|"C" EGAB c e2 g|1 "G" fdBa f d2 c:|2 "D" fdBc d2 dA||
|:"D" DAdA c2 dA|Bcea gfe^c|"C" dADd cBDc|BAGB c A2 c|
"D" dADG FDCD|ADBD cAAG|"C" AFDG FDCD|1 AFDC"D" F D2 A:|2 AFDC"D" D4||

